X:1
T:Bourree
C:Knud Seckel\R:bourree a trois temps
F:http://simonwascher.info
Z:abc transcription Simon Wascher
M:3/8
L:1/16
K:Gm
G2d2G2 | e4d2 | BABcdB | A4^F2 |
G2d2G2 | e4d2 | BABcdB | A4-A2 :|
|:\
G2BGBG | F2AFAF | E2GEGE | DE^FGAB |
G2BGBG | F2AFAF | E2GEGE |1  D2E2F2 :|\
                         [2  ^F4 D2 |]
